app/images/src/svg/menu-arrow.svg

<svg width="10" height="6" viewBox="0 0 10 6" fill="none" xmlns="http://www.w3.org/2000/svg">
<path d="M5.3902 5.7154L9.84025 1.26527C9.94325 1.16235 10 1.02495 10 0.878448C10 0.731945 9.94325 0.594548 9.84025 0.491622L9.51261 0.163901C9.29911 -0.0493492 8.95212 -0.0493492 8.73895 0.163901L5.00207 3.90078L1.26105 0.159754C1.15804 0.0568284 1.02072 -3.99559e-07 0.874302 -4.06075e-07C0.727718 -4.12598e-07 0.590402 0.0568284 0.487313 0.159754L0.159755 0.487475C0.0567474 0.590483 9.22424e-07 0.727799 9.16133e-07 0.874302C9.09842e-07 1.0208 0.0567474 1.1582 0.159755 1.26113L4.61387 5.7154C4.7172 5.81857 4.85516 5.87524 5.00183 5.87491C5.14906 5.87524 5.28695 5.81857 5.3902 5.7154Z" fill="#333333"/>
</svg>

<svg width="10" height="6" fill="none" xmlns="http://www.w3.org/2000/svg"><path d="m5.39 5.715 4.45-4.45A.543.543 0 0 0 10 .878a.543.543 0 0 0-.16-.386L9.513.164a.548.548 0 0 0-.774 0L5.002 3.9 1.262.16A.543.543 0 0 0 .873 0a.544.544 0 0 0-.387.16L.16.487A.543.543 0 0 0 0 .874c0 .147.057.284.16.387l4.454 4.454c.103.104.241.16.388.16a.544.544 0 0 0 .388-.16Z" fill="#333"/></svg>
